symbols/web/data_usage/materialsymbolsoutlined/data_usage_wght700_24px.svg

<svg xmlns="http://www.w3.org/2000/svg" height="24" width="24"><path d="m21.875 16.5-3.6-2.15q.2-.575.312-1.162Q18.7 12.6 18.7 12q0-2.525-1.6-4.425T13 5.35V1.2q4.2.375 7.025 3.475T22.85 12q0 1.175-.225 2.312-.225 1.138-.75 2.188ZM12 22.85q-2.25 0-4.225-.85-1.975-.85-3.45-2.325T2 16.225Q1.15 14.25 1.15 12q0-4.225 2.825-7.325Q6.8 1.575 11 1.2v4.15q-2.5.3-4.1 2.212Q5.3 9.475 5.3 12q0 2.8 1.95 4.75Q9.2 18.7 12 18.7q1.525 0 2.9-.65t2.325-1.85l3.6 2.15q-1.5 2.175-3.837 3.338Q14.65 22.85 12 22.85Z"/></svg>

<svg xmlns="http://www.w3.org/2000/svg" height="24" width="24"><path d="M21.875 16.5 18.275 14.35Q18.475 13.775 18.587 13.188Q18.7 12.6 18.7 12Q18.7 9.475 17.1 7.575Q15.5 5.675 13 5.35V1.2Q17.2 1.575 20.025 4.675Q22.85 7.775 22.85 12Q22.85 13.175 22.625 14.312Q22.4 15.45 21.875 16.5ZM12 22.85Q9.75 22.85 7.775 22Q5.8 21.15 4.325 19.675Q2.85 18.2 2 16.225Q1.15 14.25 1.15 12Q1.15 7.775 3.975 4.675Q6.8 1.575 11 1.2V5.35Q8.5 5.65 6.9 7.562Q5.3 9.475 5.3 12Q5.3 14.8 7.25 16.75Q9.2 18.7 12 18.7Q13.525 18.7 14.9 18.05Q16.275 17.4 17.225 16.2L20.825 18.35Q19.325 20.525 16.988 21.688Q14.65 22.85 12 22.85Z"/></svg>
